icons/zzz.svg

<svg width="24" height="24" viewBox="0 0 24 24" fill="none" xmlns="http://www.w3.org/2000/svg">
<path fill-rule="evenodd" clip-rule="evenodd" d="M13 4C13 3.44772 13.4477 3 14 3H20C20.5523 3 21 3.44772 21 4V5C21 5.26522 20.8946 5.51957 20.7071 5.70711L15.4142 11H20C20.5523 11 21 11.4477 21 12C21 12.5523 20.5523 13 20 13H14C13.4477 13 13 12.5523 13 12V11C13 10.7348 13.1054 10.4804 13.2929 10.2929L18.5858 5H14C13.4477 5 13 4.55228 13 4ZM3 12C3 11.4477 3.44772 11 4 11H10C10.5523 11 11 11.4477 11 12V13C11 13.2652 10.8946 13.5196 10.7071 13.7071L5.41421 19H10C10.5523 19 11 19.4477 11 20C11 20.5523 10.5523 21 10 21H4C3.44772 21 3 20.5523 3 20V19C3 18.7348 3.10536 18.4804 3.29289 18.2929L8.58579 13H4C3.44772 13 3 12.5523 3 12Z" fill="black"/>
</svg>

<svg
  width="24"
  height="24"
  viewBox="0 0 24 24"
  xmlns="http://www.w3.org/2000/svg"
>
  <path
    fill-rule="evenodd"
    clip-rule="evenodd"
    d="M13 4a1 1 0 0 1 1-1h6a1 1 0 0 1 1 1v1a1 1 0 0 1-.293.707L15.414 11H20a1 1 0 1 1 0 2h-6a1 1 0 0 1-1-1v-1a1 1 0 0 1 .293-.707L18.586 5H14a1 1 0 0 1-1-1zM3 12a1 1 0 0 1 1-1h6a1 1 0 0 1 1 1v1a1 1 0 0 1-.293.707L5.414 19H10a1 1 0 1 1 0 2H4a1 1 0 0 1-1-1v-1a1 1 0 0 1 .293-.707L8.586 13H4a1 1 0 0 1-1-1z"
  />
</svg>
